src/main/resources/icons/CucumberIcons/org/jetbrains/plugins/cucumber/icons/cucumberR.svg

<svg width="16" height="16" viewBox="0 0 16 16" fill="none" xmlns="http://www.w3.org/2000/svg">
<path fill-rule="evenodd" clip-rule="evenodd" d="M2 7.17503C2 3.76209 4.71205 1 8.06333 1C11.4146 1 14.2275 3.80751 13.9877 7.65836C13.748 11.5092 10.5349 14.4428 6.90623 15V13.2321C4.11502 12.6767 2 10.1799 2 7.17503ZM8 11.5C10.4853 11.5 12.5 9.48528 12.5 7C12.5 4.51472 10.4853 2.5 8 2.5C5.51472 2.5 3.5 4.51472 3.5 7C3.5 9.48528 5.51472 11.5 8 11.5Z" fill="#00A817"/>
<path d="M7.00317 4.99927V6.88599H8.16724C8.48755 6.88599 8.73494 6.80396 8.90942 6.63989C9.08651 6.47583 9.17505 6.24406 9.17505 5.94458C9.17505 5.65031 9.0826 5.41984 8.89771 5.25317C8.71541 5.0839 8.46411 4.99927 8.1438 4.99927H7.00317ZM7.00317 7.68677V9.80005H5.99536V4.16333H8.28442C8.87557 4.16333 9.34432 4.32218 9.69067 4.63989C10.037 4.955 10.2102 5.38338 10.2102 5.92505C10.2102 6.30005 10.1165 6.63208 9.92896 6.92114C9.74146 7.2076 9.48104 7.41073 9.14771 7.53052L10.3782 9.80005H9.22583L8.12036 7.68677H7.00317Z" fill="#5D5A5B"/>
</svg>

<svg width="16" height="16" viewBox="0 0 16 16" fill="none" xmlns="http://www.w3.org/2000/svg"><rect id="frame" width="16" height="16" fill="none"/><path fill-rule="evenodd" clip-rule="evenodd" d="M2 7.175C2 3.762 4.712 1 8.063 1c3.352 0 6.164 2.808 5.925 6.658-.24 3.851-3.453 6.785-7.082 7.342v-1.768C4.115 12.677 2 10.18 2 7.175zM8 11.5a4.5 4.5 0 1 0 0-9 4.5 4.5 0 0 0 0 9z" fill="#00A817"/><path d="M7.003 5v1.886h1.164c.32 0 .568-.082.742-.246.178-.164.266-.396.266-.695 0-.295-.092-.525-.277-.692C8.715 5.083 8.464 5 8.144 5h-1.14zm0 2.687V9.8H5.995V4.163h2.29c.59 0 1.06.16 1.406.477.346.315.52.743.52 1.285 0 .375-.095.707-.282.996-.188.287-.448.49-.781.61l1.23 2.27H9.226L8.12 7.686H7.003z" fill="#5D5A5B"/></svg>
